X:1
T:Arthur Somervell
T:Dominus Vobiscum
%%score { ( 1 2 ) | ( 3 4 ) }
L:1/8
M:2/2
K:D
V:1 treble 
V:2 treble 
V:3 bass 
V:4 bass 
V:1
 D6 D2 | E4 F4 | (A2 G2) F4 | E4 E4 | F8 | d6 d2 | c4 d4 | B4 A4 | (A6 G2) | F8 | B6 B2 | A4 B4 | %12
 G4 F4 | (F4 E4) | F8 | D6 D2 | E4 F4 | (A2 G2) F4 | E4 E4 | D8 | D8 D8 |] %21
V:2
 D6 D2 | D4 D4 | C4 D4 | D4 C4 | D8 | F6 F2 | G4 F4 | D4 D4 | (D4 C4) | D8 | D6 D2 | E4 F4 | %12
 E4 D4 | C8 | C8 | D6 D2 | D4 D4 | C4 D4 | F4 C4 | D8 | x16 |] %21
V:3
 F,4 A,4 | B,4 A,4 | A,4 A,4 | B,4 A,4 | A,8 | A,6 A,2 | A,4 A,4 | G,4 A,4 | (B,4 A,4) | A,8 | %10
 B,6 B,2 | B,4 B,4 | B,4 B,4 | B,8 | ^A,8 | B,6 B,2 | B,4 A,4 | A,4 A,4 | B,4 A,4 | F,8 | %20
 G,8 F,8 |] %21
V:4
 F,4 A,4 | G,4 F,4 | E,4 F,4 | G,4 A,4 | D,8 | D,6 D,2 | E,4 D,4 | G,4 F,4 | (E,4 A,,4) | D,8 | %10
 B,,6 B,,2 | C,4 ^D,4 | E,4 F,4 | G,8 | F,8 | B,6 A,2 | G,4 F,4 | E,4 F,4 | G,4 A,4 | D,8 | %20
 G,,8 D,8 |] %21

